app/img/icons/toplikes-icon.svg

<?xml version="1.0" encoding="UTF-8"?>
<svg width="42px" height="40px" viewBox="0 0 42 40" version="1.1" xmlns="http://www.w3.org/2000/svg" xmlns:xlink="http://www.w3.org/1999/xlink">
    <!-- Generator: Sketch 49.3 (51167) - http://www.bohemiancoding.com/sketch -->
    <title>star</title>
    <desc>Created with Sketch.</desc>
    <defs></defs>
    <g id="Page-1" stroke="none" stroke-width="1" fill="none" fill-rule="evenodd">
        <g id="home-iPad-768-X-864" transform="translate(-636.000000, -371.000000)" fill="#F4F5F6" fill-rule="nonzero">
            <g id="Group-3" transform="translate(584.000000, 371.000000)">
                <g id="star" transform="translate(52.000000, -0.000000)">
                    <path d="M8.36074074,39.6651852 C8.20740741,39.6651852 8.05407407,39.6177778 7.92518519,39.5237037 C7.69703704,39.3577778 7.58296296,39.077037 7.63111111,38.7992593 L9.92074074,25.4525926 L0.223703704,16.0014815 C0.0222222222,15.8044444 -0.0503703704,15.5103704 0.0362962963,15.242963 C0.123703704,14.9748148 0.355555556,14.7792593 0.634814815,14.7385185 L14.0348148,12.7911111 L20.0281481,0.648148148 C20.1525926,0.394814815 20.4103704,0.234814815 20.6918519,0.234814815 C20.9740741,0.234814815 21.2318519,0.394814815 21.3555556,0.648148148 L27.3481481,12.7911111 L40.7488889,14.7385185 C41.0281481,14.7792593 41.2592593,14.9740741 41.3474074,15.242963 C41.4340741,15.5103704 41.3622222,15.8051852 41.16,16.0014815 L31.462963,25.4540741 L33.7518519,38.8 C33.7992593,39.0777778 33.6851852,39.3585185 33.4577778,39.5244444 C33.2296296,39.6918519 32.9266667,39.7133333 32.677037,39.5807407 L20.6918519,33.28 L8.70518519,39.5807407 C8.59703704,39.637037 8.47851852,39.6651852 8.36074074,39.6651852 Z M2.33259259,15.9881481 L11.2333333,24.6644444 C11.4074074,24.8340741 11.4874074,25.08 11.4459259,25.32 L9.34444444,37.5703704 L20.3474074,31.7866667 C20.562963,31.6725926 20.82,31.6725926 21.037037,31.7866667 L32.0385185,37.5703704 L29.9377778,25.32 C29.8962963,25.08 29.9762963,24.8348148 30.1503704,24.6644444 L39.0511111,15.9881481 L26.7511111,14.2007407 C26.5096296,14.1659259 26.3014815,14.0140741 26.1933333,13.7955556 L20.6918519,2.65037037 L15.1903704,13.7962963 C15.0822222,14.0148148 14.8740741,14.1666667 14.6325926,14.2014815 L2.33259259,15.9881481 Z" id="Shape"></path>
                </g>
            </g>
        </g>
    </g>
</svg>

<svg width="42" height="40" xmlns="http://www.w3.org/2000/svg"><path d="M8.36 39.665a.739.739 0 01-.729-.866l2.29-13.346L.224 16a.742.742 0 01.41-1.262l13.4-1.948L20.029.648a.74.74 0 011.328 0l5.992 12.143 13.4 1.948A.742.742 0 0141.16 16l-9.697 9.453L33.752 38.8a.742.742 0 01-1.075.78l-11.985-6.3-11.987 6.3a.747.747 0 01-.344.085zM2.334 15.988l8.9 8.676a.74.74 0 01.213.656L9.344 37.57l11.003-5.783a.738.738 0 01.69 0l11.002 5.783-2.101-12.25a.741.741 0 01.212-.656l8.901-8.676-12.3-1.787a.74.74 0 01-.558-.405L20.692 2.65 15.19 13.796a.74.74 0 01-.557.405l-12.3 1.787z" fill="#F4F5F6" fill-rule="nonzero"/></svg>
